apps/www/public/images/product/vector/community/supabase+markprompt.svg

<svg width="208" height="39" viewBox="0 0 208 39" fill="none" xmlns="http://www.w3.org/2000/svg">
<path fill-rule="evenodd" clip-rule="evenodd" d="M20.0849 6.52087C20.0671 5.36119 18.563 4.86349 17.8213 5.77181L6.62761 19.4787C5.3064 21.0965 6.49139 23.4825 8.6161 23.4825H20.1921L20.3282 32.3154C20.3461 33.4751 21.8501 33.9727 22.5919 33.0645L33.7855 19.3576C35.1066 17.7397 33.9217 15.3538 31.797 15.3538H20.1446L20.0849 6.52087Z" fill="#707070"/>
<path d="M48.7031 19.5H55.3042" stroke="#707070"/>
<path d="M52.0039 16.1992L52.0039 22.8003" stroke="#707070"/>
<path fill-rule="evenodd" clip-rule="evenodd" d="M72.5705 2.84527C68.2714 2.84527 64.7862 6.33044 64.7862 10.6296V28.3693C64.7862 32.6684 68.2714 36.1536 72.5705 36.1536H105.234C109.533 36.1536 113.018 32.6684 113.018 28.3693V10.6296C113.018 6.33044 109.533 2.84527 105.234 2.84527H72.5705ZM64.3047 10.6296C64.3047 6.06451 68.0054 2.36377 72.5705 2.36377H105.234C109.799 2.36377 113.5 6.06451 113.5 10.6296V28.3693C113.5 32.9344 109.799 36.6351 105.234 36.6351H72.5705C68.0054 36.6351 64.3047 32.9344 64.3047 28.3693V10.6296Z" fill="#707070"/>
<path d="M98.6147 12.6301C98.6147 12.316 98.7395 12.0148 98.9616 11.7927C99.1837 11.5706 99.4849 11.4458 99.799 11.4458H102.168C102.482 11.4458 102.783 11.5706 103.005 11.7927C103.228 12.0148 103.352 12.316 103.352 12.6301V18.5524C103.352 18.8665 103.228 19.1677 103.005 19.3898C102.783 19.6119 102.482 19.7367 102.168 19.7367H99.799C99.4849 19.7367 99.1837 19.6119 98.9616 19.3898C98.7395 19.1677 98.6147 18.8665 98.6147 18.5524V12.6301ZM103.826 24.7114C103.826 26.2812 102.553 27.554 100.984 27.554C99.4135 27.554 98.1411 26.2812 98.1411 24.7114C98.1411 23.1416 99.4135 21.8688 100.984 21.8688C102.553 21.8688 103.826 23.1416 103.826 24.7114ZM75.1628 27.554C74.8487 27.554 74.5475 27.4292 74.3254 27.2071C74.1033 26.985 73.9785 26.6837 73.9785 26.3696V12.6301C73.9785 12.316 74.1033 12.0148 74.3254 11.7927C74.5475 11.5706 74.8487 11.4458 75.1628 11.4458H78.1471C78.5066 11.4458 78.8471 11.6091 79.0718 11.8901L82.529 16.2119C82.64 16.3506 82.7807 16.4626 82.9409 16.5396C83.101 16.6166 83.2764 16.6566 83.454 16.6566C83.6317 16.6566 83.8071 16.6166 83.9672 16.5396C84.1273 16.4626 84.2681 16.3506 84.379 16.2119L87.836 11.8901C87.947 11.7514 88.0878 11.6395 88.2479 11.5626C88.408 11.4857 88.5834 11.4458 88.761 11.4458H91.7449C92.0591 11.4458 92.3603 11.5706 92.5825 11.7927C92.8046 12.0148 92.9295 12.316 92.9295 12.6301V26.3696C92.9295 26.6838 92.8046 26.985 92.5825 27.2071C92.3603 27.4292 92.0591 27.554 91.7449 27.554H89.3763C89.2207 27.554 89.0667 27.5234 88.9229 27.4639C88.7792 27.4044 88.6486 27.3172 88.5386 27.2072C88.4286 27.0972 88.3414 26.9666 88.2818 26.8229C88.2223 26.6792 88.1916 26.5252 88.1916 26.3696V21.692C88.1916 20.5724 86.7818 20.0777 86.0826 20.952L84.379 23.0816C84.2681 23.2204 84.1273 23.3324 83.9672 23.4094C83.8071 23.4864 83.6317 23.5263 83.454 23.5263C83.2764 23.5263 83.101 23.4864 82.9409 23.4094C82.7807 23.3324 82.64 23.2204 82.529 23.0816L80.8255 20.952C80.1263 20.0777 78.7164 20.5724 78.7164 21.692V26.3696C78.7164 26.5252 78.6858 26.6792 78.6262 26.8229C78.5667 26.9666 78.4794 27.0972 78.3694 27.2072C78.2594 27.3172 78.1288 27.4044 77.9851 27.4639C77.8414 27.5234 77.6874 27.554 77.5318 27.554H75.1628Z" fill="#707070"/>
<path d="M121.775 13.6069H123.767L127.229 22.0601H127.356L130.818 13.6069H132.809V24.4814H131.248V16.6123H131.147L127.94 24.4654H126.644L123.437 16.607H123.336V24.4814H121.775V13.6069Z" fill="#707070"/>
<path d="M137.441 24.6619C136.924 24.6619 136.457 24.5663 136.039 24.3752C135.621 24.1805 135.29 23.8991 135.046 23.5309C134.805 23.1628 134.685 22.7114 134.685 22.1769C134.685 21.7167 134.773 21.338 134.95 21.0406C135.127 20.7433 135.366 20.5079 135.667 20.3344C135.968 20.161 136.304 20.03 136.676 19.9415C137.048 19.853 137.426 19.7858 137.812 19.7397C138.301 19.6831 138.697 19.6371 139.002 19.6017C139.306 19.5627 139.527 19.5008 139.665 19.4158C139.803 19.3309 139.872 19.1928 139.872 19.0017V18.9645C139.872 18.5008 139.741 18.1415 139.48 17.8866C139.221 17.6318 138.835 17.5043 138.322 17.5043C137.787 17.5043 137.366 17.6229 137.058 17.8601C136.754 18.0937 136.543 18.3539 136.426 18.6406L134.934 18.3008C135.111 17.8052 135.37 17.4052 135.71 17.1008C136.053 16.7928 136.448 16.5698 136.894 16.4317C137.34 16.2901 137.809 16.2193 138.301 16.2193C138.626 16.2193 138.972 16.2583 139.336 16.3362C139.704 16.4105 140.048 16.5486 140.366 16.7503C140.688 16.9521 140.952 17.2406 141.157 17.6158C141.363 17.9875 141.465 18.4707 141.465 19.0654V24.4814H139.915V23.3663H139.851C139.749 23.5716 139.595 23.7734 139.389 23.9716C139.184 24.1699 138.92 24.3345 138.598 24.4654C138.276 24.5964 137.89 24.6619 137.441 24.6619ZM137.786 23.3876C138.225 23.3876 138.6 23.3008 138.911 23.1274C139.226 22.9539 139.465 22.7274 139.628 22.4477C139.795 22.1645 139.878 21.8619 139.878 21.5398V20.4884C139.821 20.5451 139.711 20.5982 139.549 20.6477C139.389 20.6937 139.207 20.7344 139.002 20.7698C138.796 20.8017 138.596 20.8318 138.402 20.8601C138.207 20.8849 138.044 20.9061 137.913 20.9238C137.605 20.9628 137.324 21.0282 137.069 21.1203C136.818 21.2123 136.616 21.3451 136.464 21.5185C136.315 21.6884 136.241 21.915 136.241 22.1982C136.241 22.5911 136.386 22.8884 136.676 23.0902C136.966 23.2884 137.336 23.3876 137.786 23.3876Z" fill="#707070"/>
<path d="M143.58 24.4814V16.3255H145.115V17.6211H145.2C145.348 17.1822 145.61 16.8371 145.985 16.5857C146.364 16.3309 146.792 16.2034 147.27 16.2034C147.369 16.2034 147.486 16.207 147.621 16.214C147.759 16.2211 147.867 16.23 147.945 16.2406V17.7592C147.881 17.7415 147.768 17.722 147.605 17.7008C147.442 17.676 147.279 17.6636 147.116 17.6636C146.741 17.6636 146.407 17.7433 146.113 17.9026C145.823 18.0583 145.592 18.276 145.423 18.5557C145.253 18.8318 145.168 19.1468 145.168 19.5008V24.4814H143.58Z" fill="#707070"/>
<path d="M150.779 21.715L150.768 19.7769H151.044L154.294 16.3255H156.195L152.489 20.2548H152.239L150.779 21.715ZM149.319 24.4814V13.6069H150.906V24.4814H149.319ZM154.469 24.4814L151.549 20.6052L152.643 19.4955L156.418 24.4814H154.469Z" fill="#707070"/>
<path d="M157.642 27.5398V16.3255H159.192V17.6477H159.325C159.417 17.4778 159.55 17.2813 159.723 17.0583C159.897 16.8353 160.137 16.6406 160.445 16.4742C160.753 16.3043 161.16 16.2193 161.666 16.2193C162.325 16.2193 162.913 16.3857 163.429 16.7185C163.946 17.0512 164.351 17.5309 164.645 18.1574C164.943 18.784 165.091 19.538 165.091 20.4194C165.091 21.3008 164.944 22.0566 164.651 22.6867C164.357 23.3132 163.953 23.7964 163.44 24.1362C162.927 24.4725 162.341 24.6407 161.682 24.6407C161.187 24.6407 160.782 24.5575 160.466 24.3911C160.155 24.2247 159.911 24.03 159.734 23.807C159.557 23.584 159.42 23.3858 159.325 23.2123H159.229V27.5398H157.642ZM159.197 20.4035C159.197 20.9769 159.281 21.4796 159.447 21.9114C159.613 22.3433 159.854 22.6814 160.169 22.9256C160.484 23.1663 160.87 23.2867 161.327 23.2867C161.801 23.2867 162.197 23.161 162.516 22.9097C162.835 22.6548 163.075 22.3097 163.238 21.8743C163.405 21.4389 163.488 20.9486 163.488 20.4035C163.488 19.8654 163.406 19.3822 163.243 18.9539C163.084 18.5256 162.843 18.1875 162.521 17.9397C162.203 17.6919 161.805 17.568 161.327 17.568C160.866 17.568 160.477 17.6866 160.159 17.9238C159.843 18.161 159.605 18.4919 159.442 18.9167C159.279 19.3415 159.197 19.8371 159.197 20.4035Z" fill="#707070"/>
<path d="M166.87 24.4814V16.3255H168.405V17.6211H168.49C168.638 17.1822 168.9 16.8371 169.275 16.5857C169.654 16.3309 170.083 16.2034 170.56 16.2034C170.66 16.2034 170.776 16.207 170.911 16.214C171.049 16.2211 171.157 16.23 171.235 16.2406V17.7592C171.171 17.7415 171.058 17.722 170.895 17.7008C170.732 17.676 170.569 17.6636 170.406 17.6636C170.031 17.6636 169.697 17.7433 169.403 17.9026C169.113 18.0583 168.882 18.276 168.713 18.5557C168.543 18.8318 168.458 19.1468 168.458 19.5008V24.4814H166.87Z" fill="#707070"/>
<path d="M175.752 24.646C174.987 24.646 174.32 24.4708 173.75 24.1203C173.18 23.7699 172.738 23.2796 172.423 22.6495C172.108 22.0194 171.95 21.2831 171.95 20.4406C171.95 19.5946 172.108 18.8548 172.423 18.2211C172.738 17.5875 173.18 17.0955 173.75 16.745C174.32 16.3946 174.987 16.2193 175.752 16.2193C176.517 16.2193 177.184 16.3946 177.754 16.745C178.324 17.0955 178.766 17.5875 179.081 18.2211C179.396 18.8548 179.554 19.5946 179.554 20.4406C179.554 21.2831 179.396 22.0194 179.081 22.6495C178.766 23.2796 178.324 23.7699 177.754 24.1203C177.184 24.4708 176.517 24.646 175.752 24.646ZM175.757 23.3132C176.253 23.3132 176.664 23.1823 176.989 22.9203C177.315 22.6584 177.556 22.3097 177.711 21.8743C177.871 21.4389 177.95 20.9592 177.95 20.4353C177.95 19.915 177.871 19.4371 177.711 19.0017C177.556 18.5627 177.315 18.2105 176.989 17.945C176.664 17.6795 176.253 17.5468 175.757 17.5468C175.258 17.5468 174.844 17.6795 174.515 17.945C174.189 18.2105 173.947 18.5627 173.787 19.0017C173.632 19.4371 173.554 19.915 173.554 20.4353C173.554 20.9592 173.632 21.4389 173.787 21.8743C173.947 22.3097 174.189 22.6584 174.515 22.9203C174.844 23.1823 175.258 23.3132 175.757 23.3132Z" fill="#707070"/>
<path d="M181.326 24.4814V16.3255H182.85V17.653H182.951C183.121 17.2034 183.399 16.853 183.784 16.6017C184.17 16.3468 184.632 16.2193 185.17 16.2193C185.715 16.2193 186.172 16.3468 186.54 16.6017C186.912 16.8565 187.186 17.207 187.363 17.653H187.448C187.643 17.2176 187.953 16.8707 188.377 16.6123C188.802 16.3503 189.308 16.2193 189.896 16.2193C190.636 16.2193 191.239 16.4512 191.707 16.9149C192.177 17.3787 192.413 18.0778 192.413 19.0123V24.4814H190.825V19.161C190.825 18.6088 190.675 18.2087 190.374 17.961C190.073 17.7132 189.714 17.5893 189.296 17.5893C188.779 17.5893 188.377 17.7486 188.091 18.0672C187.804 18.3822 187.661 18.7875 187.661 19.2831V24.4814H186.078V19.0601C186.078 18.6176 185.94 18.2618 185.664 17.9928C185.388 17.7238 185.029 17.5893 184.586 17.5893C184.285 17.5893 184.007 17.6689 183.753 17.8282C183.501 17.984 183.298 18.2017 183.142 18.4813C182.99 18.761 182.914 19.0849 182.914 19.453V24.4814H181.326Z" fill="#707070"/>
<path d="M194.541 27.5398V16.3255H196.091V17.6477H196.224C196.316 17.4778 196.449 17.2813 196.622 17.0583C196.796 16.8353 197.036 16.6406 197.344 16.4742C197.652 16.3043 198.059 16.2193 198.566 16.2193C199.224 16.2193 199.812 16.3857 200.328 16.7185C200.845 17.0512 201.251 17.5309 201.544 18.1574C201.842 18.784 201.99 19.538 201.99 20.4194C201.99 21.3008 201.843 22.0566 201.55 22.6867C201.256 23.3132 200.852 23.7964 200.339 24.1362C199.826 24.4725 199.24 24.6407 198.581 24.6407C198.086 24.6407 197.681 24.5575 197.366 24.3911C197.054 24.2247 196.81 24.03 196.633 23.807C196.456 23.584 196.319 23.3858 196.224 23.2123H196.128V27.5398H194.541ZM196.096 20.4035C196.096 20.9769 196.18 21.4796 196.346 21.9114C196.512 22.3433 196.753 22.6814 197.068 22.9256C197.383 23.1663 197.769 23.2867 198.226 23.2867C198.7 23.2867 199.097 23.161 199.415 22.9097C199.734 22.6548 199.974 22.3097 200.137 21.8743C200.304 21.4389 200.387 20.9486 200.387 20.4035C200.387 19.8654 200.305 19.3822 200.143 18.9539C199.983 18.5256 199.743 18.1875 199.42 17.9397C199.102 17.6919 198.704 17.568 198.226 17.568C197.766 17.568 197.376 17.6866 197.058 17.9238C196.743 18.161 196.504 18.4919 196.341 18.9167C196.178 19.3415 196.096 19.8371 196.096 20.4035Z" fill="#707070"/>
<path d="M207.576 16.3255V17.5999H203.121V16.3255H207.576ZM204.316 14.3715H205.904V22.0867C205.904 22.3946 205.95 22.6265 206.042 22.7822C206.134 22.9345 206.252 23.0389 206.397 23.0955C206.546 23.1486 206.707 23.1752 206.881 23.1752C207.008 23.1752 207.12 23.1663 207.215 23.1486C207.311 23.1309 207.385 23.1168 207.438 23.1061L207.725 24.4177C207.633 24.4531 207.502 24.4885 207.332 24.5239C207.162 24.5628 206.95 24.584 206.695 24.5876C206.277 24.5947 205.888 24.5203 205.527 24.3646C205.166 24.2088 204.874 23.9681 204.651 23.6424C204.428 23.3168 204.316 22.9079 204.316 22.4159V14.3715Z" fill="#707070"/>
</svg>

<svg xmlns="http://www.w3.org/2000/svg" width="208" height="39" fill="none" viewBox="0 0 208 39"><path fill="#707070" fill-rule="evenodd" d="M20.085 6.52c-.018-1.159-1.522-1.657-2.264-.748L6.628 19.479c-1.322 1.617-.137 4.004 1.988 4.004h11.576l.136 8.832c.018 1.16 1.522 1.658 2.264.75l11.194-13.707c1.32-1.618.136-4.004-1.989-4.004H20.145z" clip-rule="evenodd"/><path stroke="#707070" d="M48.703 19.5h6.601M52.004 16.2v6.6"/><path fill="#707070" fill-rule="evenodd" d="M72.57 2.845a7.784 7.784 0 0 0-7.784 7.785v17.74c0 4.298 3.485 7.784 7.784 7.784h32.664a7.784 7.784 0 0 0 7.784-7.785V10.63c0-4.299-3.485-7.784-7.784-7.784zm-8.265 7.785c0-4.565 3.7-8.266 8.265-8.266h32.664c4.565 0 8.266 3.7 8.266 8.266v17.74a8.266 8.266 0 0 1-8.266 8.265H72.571a8.266 8.266 0 0 1-8.266-8.266z" clip-rule="evenodd"/><path fill="#707070" d="M98.615 12.63a1.184 1.184 0 0 1 1.184-1.184h2.369a1.183 1.183 0 0 1 1.184 1.184v5.922a1.18 1.18 0 0 1-1.184 1.185h-2.369a1.184 1.184 0 0 1-1.184-1.185zm5.211 12.081a2.843 2.843 0 1 1-5.686 0 2.843 2.843 0 0 1 5.686 0m-28.663 2.843a1.184 1.184 0 0 1-1.184-1.184V12.63a1.184 1.184 0 0 1 1.184-1.184h2.984c.36 0 .7.163.925.444l3.457 4.322a1.185 1.185 0 0 0 1.85 0l3.457-4.322a1.18 1.18 0 0 1 .925-.444h2.984a1.185 1.185 0 0 1 1.185 1.184v13.74a1.184 1.184 0 0 1-1.185 1.184h-2.369a1.186 1.186 0 0 1-1.184-1.184v-4.678c0-1.12-1.41-1.614-2.11-.74l-1.703 2.13a1.184 1.184 0 0 1-1.85 0l-1.703-2.13c-.7-.874-2.11-.38-2.11.74v4.678a1.183 1.183 0 0 1-1.184 1.184zM121.775 13.607h1.992l3.462 8.453h.127l3.462-8.453h1.991V24.48h-1.561v-7.869h-.101l-3.207 7.853h-1.296l-3.207-7.858h-.101v7.874h-1.561zM137.441 24.662q-.775 0-1.402-.287a2.36 2.36 0 0 1-.993-.844q-.361-.553-.361-1.354 0-.69.265-1.136a1.96 1.96 0 0 1 .717-.707 3.7 3.7 0 0 1 1.009-.392q.558-.133 1.136-.202l1.19-.138q.456-.06.663-.186.207-.128.207-.414v-.037q0-.696-.392-1.078-.388-.383-1.158-.383-.802 0-1.264.356-.456.351-.632.78l-1.492-.34q.266-.743.776-1.2a3.14 3.14 0 0 1 1.184-.668 4.6 4.6 0 0 1 1.407-.213q.488 0 1.035.117.553.113 1.03.414.483.302.791.866.308.558.308 1.45v5.415h-1.55v-1.115h-.064a2.2 2.2 0 0 1-.462.606 2.5 2.5 0 0 1-.791.493q-.483.197-1.157.197m.345-1.274q.658 0 1.125-.26.472-.26.717-.68.25-.425.25-.908v-1.052q-.086.085-.329.16-.24.069-.547.122l-.6.09-.489.064a4 4 0 0 0-.844.196 1.45 1.45 0 0 0-.605.398q-.223.255-.223.68 0 .59.435.892.435.297 1.11.298M143.58 24.481v-8.155h1.535v1.295h.085q.222-.658.785-1.035a2.25 2.25 0 0 1 1.285-.383 7 7 0 0 1 .675.038v1.518a3 3 0 0 0-.34-.058 3 3 0 0 0-.489-.037q-.562 0-1.003.239a1.77 1.77 0 0 0-.69.653q-.255.413-.255.945v4.98zM150.779 21.715l-.011-1.938h.276l3.25-3.451h1.901l-3.706 3.929h-.25zm-1.46 2.766V13.607h1.587V24.48zm5.15 0-2.92-3.876 1.094-1.11 3.775 4.986zM157.642 27.54V16.326h1.55v1.322h.133q.138-.255.398-.59t.722-.584q.462-.255 1.221-.255.989 0 1.763.5.775.498 1.216 1.438.447.94.446 2.262 0 1.323-.44 2.268-.441.94-1.211 1.45-.77.503-1.758.504-.742 0-1.216-.25a2.3 2.3 0 0 1-.732-.584 4.4 4.4 0 0 1-.409-.595h-.096v4.328zm1.555-7.136q0 .86.25 1.507.25.648.722 1.015.472.36 1.158.36.71 0 1.189-.376.478-.382.722-1.036.25-.652.25-1.47 0-.808-.245-1.45a2.2 2.2 0 0 0-.722-1.014q-.477-.372-1.194-.372-.691 0-1.168.356-.473.356-.717.993-.245.636-.245 1.486M166.87 24.481v-8.155h1.535v1.295h.085q.222-.658.785-1.035a2.25 2.25 0 0 1 1.285-.383 7 7 0 0 1 .675.038v1.518a3 3 0 0 0-.34-.058 3 3 0 0 0-.489-.037q-.562 0-1.003.239a1.77 1.77 0 0 0-.69.653q-.255.413-.255.945v4.98zM175.752 24.646q-1.147 0-2.002-.526a3.54 3.54 0 0 1-1.327-1.47q-.473-.945-.473-2.21 0-1.268.473-2.219a3.54 3.54 0 0 1 1.327-1.476q.855-.526 2.002-.526t2.002.526 1.327 1.476.473 2.22q0 1.263-.473 2.209a3.54 3.54 0 0 1-1.327 1.47q-.855.526-2.002.526m.005-1.333q.744 0 1.232-.393.49-.392.722-1.046.24-.653.239-1.439 0-.78-.239-1.433a2.33 2.33 0 0 0-.722-1.057q-.488-.398-1.232-.398-.749 0-1.242.398a2.4 2.4 0 0 0-.728 1.057 4.3 4.3 0 0 0-.233 1.433q0 .786.233 1.44.24.652.728 1.045.493.393 1.242.393M181.326 24.481v-8.155h1.524v1.327h.101q.255-.675.833-1.051.579-.383 1.386-.383.818 0 1.37.383.558.382.823 1.051h.085a2.3 2.3 0 0 1 .929-1.04q.637-.394 1.519-.394 1.11 0 1.811.696.705.696.706 2.097v5.47h-1.588V19.16q0-.828-.451-1.2a1.64 1.64 0 0 0-1.078-.372q-.776 0-1.205.478-.43.472-.43 1.216v5.198h-1.583v-5.42q0-.665-.414-1.068-.414-.404-1.078-.404-.452 0-.833.24a1.75 1.75 0 0 0-.611.652q-.228.42-.228.972v5.028zM194.541 27.54V16.326h1.55v1.322h.133q.138-.255.398-.59t.722-.584q.462-.255 1.222-.255.988 0 1.762.5.776.498 1.216 1.438.447.94.446 2.262 0 1.323-.44 2.268-.441.94-1.211 1.45-.77.503-1.758.504-.743 0-1.215-.25a2.3 2.3 0 0 1-.733-.584 4.4 4.4 0 0 1-.409-.595h-.096v4.328zm1.555-7.136q0 .86.25 1.507.25.648.722 1.015.472.36 1.158.36.712 0 1.189-.376.478-.382.722-1.036.25-.652.25-1.47 0-.808-.244-1.45-.24-.643-.723-1.014-.477-.372-1.194-.372-.69 0-1.168.356-.472.356-.717.993-.245.636-.245 1.486M207.576 16.326V17.6h-4.455v-1.274zm-3.26-1.955h1.588v7.716q0 .462.138.695.138.228.355.314.223.08.484.08.191 0 .334-.027l.223-.043.287 1.312q-.138.052-.393.106-.255.058-.637.064a2.8 2.8 0 0 1-1.168-.223 2 2 0 0 1-.876-.723q-.335-.488-.335-1.226z"/></svg>
